logos/tv.tvp1.svg

<?xml version="1.0" encoding="UTF-8" standalone="no"?>
<!-- Created with Inkscape (http://www.inkscape.org/) -->

<svg
   xmlns:dc="http://purl.org/dc/elements/1.1/"
   xmlns:cc="http://creativecommons.org/ns#"
   xmlns:rdf="http://www.w3.org/1999/02/22-rdf-syntax-ns#"
   xmlns:svg="http://www.w3.org/2000/svg"
   xmlns="http://www.w3.org/2000/svg"
   xmlns:inkscape="http://www.inkscape.org/namespaces/inkscape"
   version="1.0"
   width="744.09448"
   height="279.35434"
   viewBox="0 0 210 297"
   id="svg2"
   xml:space="preserve"
   style="fill-rule:evenodd"><metadata
   id="metadata15"><rdf:RDF><cc:Work
       rdf:about=""><dc:format>image/svg+xml</dc:format><dc:type
         rdf:resource="http://purl.org/dc/dcmitype/StillImage" /></cc:Work></rdf:RDF></metadata>
 <defs
   id="defs4">
  <style
   type="text/css"
   id="style6" />
 </defs>
 <g
   transform="matrix(3.7666448,0,0,3.7666448,-290.54793,-410.82789)"
   id="Warstwa_x0020_1">
  <metadata
   id="CorelCorpID_0Corel-Layer" />
  <g
   id="_74801248">
   <polygon
   points="210,109.08 210,187.92 0,187.92 0,109.08 0,109.08 "
   id="_74801392"
   style="fill:#0099cb" />
   <path
   d="m 63.5188,124.256 36.2688,0 0,47.6633 -36.2688,0 0,-47.6633 z m 38.9356,0 36.2688,0 0,47.6633 -36.2688,0 0,-47.6633 z m 7.855,7.855 0,32.4382 6.5458,0 0,-9.8915 1.4062,0.0485 c 8.8732,0 13.2371,-5.7215 13.2371,-11.4431 0,-5.576 -4.2184,-11.1521 -12.6068,-11.1521 l -8.5823,0 0,0 z m 6.5458,6.3034 2.3759,0 c 3.7336,0.0485 5.6246,1.3091 5.867,5.0427 -0.1939,3.879 -2.4244,5.0912 -6.2064,5.1882 l -2.0365,0 0,-10.2309 z m -35.202,27.153 -15.0312,-33.8443 7.2732,0 7.5156,17.1161 0.2424,1.0183 0.2424,-1.0183 7.4671,-17.1161 7.3217,0 -15.0312,33.8443 0,0 z m -26.3773,-27.153 0,-6.3034 -25.1651,0 0,6.3034 9.1157,0 0,26.1348 6.9822,0 0,-26.1348 9.0672,0 z m -30.6927,-14.1584 36.2688,0 0,47.6633 -36.2688,0 0,-47.6633 0,0 z m -2.6668,-2.3274 119.474,0 0,52.3181 -119.474,0 0,-52.3181 z"
   inkscape:connector-curvature="0"
   id="_74801320"
   style="fill:#ffffff" />
   <polygon
   points="181.732,118.971 159.185,130.705 159.185,144.912 169.076,138.803 168.406,174.384 181.732,174.392 181.732,174.392 "
   id="_74801176"
   style="fill:#ffffff" />
  </g>
 </g>
</svg>

<?xml version="1.0" encoding="UTF-8" standalone="no"?>
<!-- Creator: CorelDRAW -->
<svg
   xmlns:dc="http://purl.org/dc/elements/1.1/"
   xmlns:cc="http://web.resource.org/cc/"
   xmlns:rdf="http://www.w3.org/1999/02/22-rdf-syntax-ns#"
   xmlns:svg="http://www.w3.org/2000/svg"
   xmlns="http://www.w3.org/2000/svg"
   xmlns:sodipodi="http://sodipodi.sourceforge.net/DTD/sodipodi-0.dtd"
   xmlns:inkscape="http://www.inkscape.org/namespaces/inkscape"
   xml:space="preserve"
   width="744.09448"
   height="279.35434"
   style="shape-rendering:geometricPrecision; text-rendering:geometricPrecision; image-rendering:optimizeQuality; fill-rule:evenodd; clip-rule:evenodd"
   viewBox="0 0 210 297"
   id="svg2"
   sodipodi:version="0.32"
   inkscape:version="0.45.1"
   sodipodi:docname="Logo TVP 1.svg"
   inkscape:output_extension="org.inkscape.output.svg.inkscape"
   sodipodi:docbase="C:\Users\Mistrz\Desktop"
   version="1.0"><metadata
   id="metadata15"><rdf:RDF><cc:Work
       rdf:about=""><dc:format>image/svg+xml</dc:format><dc:type
         rdf:resource="http://purl.org/dc/dcmitype/StillImage" /></cc:Work></rdf:RDF></metadata><sodipodi:namedview
   inkscape:window-height="480"
   inkscape:window-width="640"
   inkscape:pageshadow="2"
   inkscape:pageopacity="0.0"
   guidetolerance="10.0"
   gridtolerance="10.0"
   objecttolerance="10.0"
   borderopacity="1.0"
   bordercolor="#666666"
   pagecolor="#ffffff"
   id="base" />
 <defs
   id="defs4">
  <style
   type="text/css"
   id="style6">
   
    .fil1 {fill:white}
    .fil0 {fill:#0099CB}
   
  </style>
 </defs>
 <g
   id="Warstwa_x0020_1"
   transform="matrix(3.7666448,0,0,3.7666448,-290.54793,-410.82789)">
  <metadata
   id="CorelCorpID_0Corel-Layer" />
  <g
   id="_74801248">
   <polygon
   id="_74801392"
   class="fil0"
   points="0,109.08 210,109.08 210,187.92 0,187.92 0,109.08 "
   style="fill:#0099cb" />
   <path
   id="_74801320"
   class="fil1"
   d="M 63.5188,124.256 L 99.7876,124.256 L 99.7876,171.9193 L 63.5188,171.9193 L 63.5188,124.256 z M 102.4544,124.256 L 138.7232,124.256 L 138.7232,171.9193 L 102.4544,171.9193 L 102.4544,124.256 z M 110.3094,132.111 L 110.3094,164.5492 L 116.8552,164.5492 L 116.8552,154.6577 L 118.2614,154.7062 C 127.1346,154.7062 131.4985,148.9847 131.4985,143.2631 C 131.4985,137.6871 127.2801,132.111 118.8917,132.111 L 110.3094,132.111 L 110.3094,132.111 z M 116.8552,138.4144 L 119.2311,138.4144 C 122.9647,138.4629 124.8557,139.7235 125.0981,143.4571 C 124.9042,147.3361 122.6737,148.5483 118.8917,148.6453 L 116.8552,148.6453 L 116.8552,138.4144 z M 81.6532,165.5674 L 66.622,131.7231 L 73.8952,131.7231 L 81.4108,148.8392 L 81.6532,149.8575 L 81.8956,148.8392 L 89.3627,131.7231 L 96.6844,131.7231 L 81.6532,165.5674 L 81.6532,165.5674 z M 55.2759,138.4144 L 55.2759,132.111 L 30.1108,132.111 L 30.1108,138.4144 L 39.2265,138.4144 L 39.2265,164.5492 L 46.2087,164.5492 L 46.2087,138.4144 L 55.2759,138.4144 z M 24.5832,124.256 L 60.852,124.256 L 60.852,171.9193 L 24.5832,171.9193 L 24.5832,124.256 L 24.5832,124.256 z M 21.9164,121.9286 L 141.3904,121.9286 L 141.3904,174.2467 L 21.9164,174.2467 L 21.9164,121.9286 z "
   style="fill:#ffffff" />
   <polygon
   id="_74801176"
   class="fil1"
   points="181.732,174.392 181.732,118.971 159.185,130.705 159.185,144.912 169.076,138.803 168.406,174.384 181.732,174.392 "
   style="fill:#ffffff" />
  </g>
 </g>
</svg>
